X: 9513
T: Dark Side Of The Moor, The
R: reel
M: 4/4
K: Edorian
|:"Em"BEED EFGA|"C"BGdB "D"ADFA|"Em"BEEF "C"~G3B|"D"AFEF "Bm"DEFA|
"Em"BEED EFGA|"C"BGdB "D"A2GA|"Em"BEEF "C"~G3B|1 "Bm"FDAF "Em"E2GA:|2 "Em"~F3B "Em"E2GA||
|:"Em"Bege "D"Adfd|"C"GBeB "D"ADFA|"Em"BEEF "C"GABG|"D"AFdB A2GA|
"Em"Bege "D"Adfd|"C"GBeB "D"A2GA|"Em"BEEF "C"~G3B|1 "Bm"FDAF "C"E2GA:|2 "Bm"~F3B "C"E2GA||

